src/assets/svg/skill/mysql.svg

<svg role="img" focusable="false" aria-hidden="true" xmlns="http://www.w3.org/2000/svg" viewBox="0 0 14 14">
    <path
        d="m 1.1759672,1.2982589 c -0.30085519,0.300856 -0.22564139,0.647052 0.3008551,1.429062 0.270983,0.405941 0.5867742,1.038057 0.7073296,1.39919 0.1205554,0.376069 0.3611328,0.887629 0.5264964,1.143143 0.3008552,0.42141 0.3008552,0.51156 0.105086,1.278634 -0.1205555,0.481155 -0.1653637,1.083398 -0.105086,1.459467 0.09015,0.632116 0.6017103,1.549618 0.9175015,1.654703 0.2709829,0.09015 0.6619879,-0.391004 0.676924,-0.827351 0,-0.376069 0.014936,-0.391005 0.1802997,-0.120556 0.285919,0.466219 1.1884844,1.4589341 1.2636982,1.3837211 C 5.7789438,10.0684 5.583708,9.6768609 5.297789,9.2410479 5.026806,8.7897649 4.7110148,8.2029909 4.5909928,7.9320079 4.4256292,7.4807249 4.3653515,7.4508529 4.1695823,7.6610249 c -0.1205554,0.120556 -0.270983,0.466219 -0.3157912,0.78201 -0.1205554,0.722266 -0.391005,0.812416 -0.6017102,0.195769 -0.2107053,-0.616646 -0.2107053,-1.670172 0,-2.391905 C 3.4025084,5.7502749 3.3875724,5.6153169 3.1315254,5.2387149 2.9661618,5.0130729 2.7101149,4.4716409 2.5746234,4.0352939 2.4391319,3.6138839 2.1233407,2.9823009 1.8678273,2.6510409 1.2810531,1.8236889 1.2810531,1.5228339 1.8976994,1.6428559 c 0.2555135,0.04534 0.6470519,0.225641 0.8876293,0.391005 0.2256413,0.165363 0.6166463,0.300855 0.8572237,0.300855 0.7222657,0 1.9859639,0.70733 2.9034655,1.624831 0.707329,0.706796 1.067929,1.278634 1.835536,2.828251 0.902565,1.835003 0.977779,1.940623 1.534681,2.120922 0.6619881,0.225642 2.0457081,1.067929 2.0457081,1.2487621 0,0.06028 -0.346196,0.150428 -0.767074,0.1803 -1.128206,0.120556 -1.2338261,0.330727 -0.496624,0.992715 0.346197,0.300856 0.993249,0.767074 1.459468,1.023121 L 13,12.834773 12.608995,12.338149 c -0.225641,-0.270983 -0.69186,-0.69186 -1.052993,-0.917502 -0.361133,-0.225641 -0.647052,-0.466218 -0.647052,-0.526496 0,-0.06028 0.255514,-0.165364 0.571839,-0.210705 0.842287,-0.150428 1.082865,-0.225642 1.082865,-0.376069 0,-0.225642 -1.519212,-1.3687841 -2.241478,-1.6851091 C 9.7055299,8.3363489 9.6303159,8.2157929 8.8328369,6.5765599 8.1255069,5.0722839 7.8401219,4.6508739 6.9375559,3.7483079 5.7794772,2.5902289 4.9819978,2.0936049 3.958877,1.9431779 3.6126803,1.8828999 3.1315254,1.7025999 2.9208202,1.5521729 2.4241959,1.1761039 1.4165446,1.0406119 1.1754337,1.2966589 Z"
        fill="#e8e8e8" />
</svg>

<svg aria-hidden="true" xmlns="http://www.w3.org/2000/svg" viewBox="0 0 14 14"><path d="M1.176 1.298c-.3.301-.226.647.3 1.43.272.405.588 1.037.708 1.399.12.376.361.887.527 1.143.3.421.3.511.105 1.278-.12.481-.166 1.084-.105 1.46.09.632.601 1.55.917 1.654.271.09.662-.39.677-.827 0-.376.015-.39.18-.12.286.466 1.189 1.458 1.264 1.383.03-.03-.165-.421-.451-.857a15.436 15.436 0 0 1-.707-1.309c-.165-.451-.226-.481-.421-.271-.121.12-.271.466-.316.782-.12.722-.391.812-.602.196-.21-.617-.21-1.67 0-2.392.15-.497.136-.632-.12-1.008-.166-.226-.422-.767-.557-1.204-.136-.421-.452-1.053-.707-1.384-.587-.827-.587-1.128.03-1.008.255.045.647.225.887.39.226.166.617.302.858.302.722 0 1.986.707 2.903 1.625.707.706 1.068 1.278 1.836 2.828.902 1.835.977 1.94 1.534 2.12.662.226 2.046 1.069 2.046 1.25 0 .06-.346.15-.767.18-1.128.12-1.234.33-.497.992.346.301.993.768 1.46 1.024l.842.48-.391-.496a5.293 5.293 0 0 0-1.053-.917c-.361-.226-.647-.467-.647-.527s.255-.165.572-.21c.842-.151 1.083-.226 1.083-.377 0-.225-1.52-1.368-2.242-1.685-.616-.286-.692-.406-1.49-2.045-.706-1.505-.992-1.926-1.894-2.829-1.159-1.158-1.956-1.654-2.98-1.805-.345-.06-.826-.24-1.037-.39-.497-.377-1.504-.512-1.746-.256z" fill="#e8e8e8"/></svg>
